!!!OTL: 202. Sher
!!!Genre:	Sher
!!!Mode:	Minor
!!!Listening/dance:	dance
!!!One_Mode:	yes
**kern
*thru
*I"P1
*clefG2
*k[b-e-]
*B-:
8f
=10
!LO:TX:a:i:t=Bb-major
4.b-
16ccLL
16ddJJ
=11
4.b-
16ccLL
16ddJJ
=12
8b-L
16ccL
16ddJJ
8b-L
16ccL
16ddJJ
=13
4.b-
8f
=14
8.ccL
16b-Jk
8b-L
8ccJ
=15
8ccL
8ddJ
4b-
=16
8.ccL
16b-Jk
8b-L
8ccJ
=17
8ccL
8ddJ
4b-
=18
8gL
8ccJ
8ccL
16b-L
16aJJ
=19
4g
4f
=20
8gL
8ccJ
8ccL
16b-L
16aJJ
=21
4.b-
!!!End-Modulation
*-
